packages/dnb-ui-lib/assets/icons/account_out.svg

<svg width="16" height="16" viewBox="0 0 16 16" fill="none" xmlns="http://www.w3.org/2000/svg">
<path d="M9 12.9778H13.6667M12.1111 14.5333L13.6667 12.9778M13.6667 12.9778L12.1111 11.4222M11.0466 9C10.4558 8.06554 9.59687 7.22093 8.76492 6.6H5.03508C3.55992 7.70099 2 9.50521 2 11.2667C2 13.7042 3.21042 15 6.9 15C7.14147 15 7.37233 14.9945 7.59292 14.9834M9.93333 1L4.33333 1.93333C4.33333 1.93333 5.26667 2.44242 5.26667 3.8H8.3C8.3 2.44242 9.93333 1 9.93333 1Z" stroke="black" stroke-width="1.5" stroke-linecap="round" stroke-linejoin="round"/>
</svg>

<svg width="16" height="16" viewBox="0 0 16 16" fill="none" xmlns="http://www.w3.org/2000/svg"><path d="M9 12.978h4.667m-1.556 1.555l1.556-1.555m0 0l-1.556-1.556M11.047 9c-.591-.934-1.45-1.78-2.282-2.4h-3.73C3.56 7.701 2 9.505 2 11.267 2 13.704 3.21 15 6.9 15c.241 0 .472-.005.693-.017M9.933 1l-5.6.933s.934.51.934 1.867H8.3C8.3 2.442 9.933 1 9.933 1z" stroke="#000" stroke-width="1.5" stroke-linecap="round" stroke-linejoin="round"/></svg>
